X:184
T:Grey Eagle
C:Traditional - Arr. Joe Carr
N:
R:bluegrass
L:1/8
Q:1/4=230
M:4/4
K:A
"Key of A"z6 (3EFG | "A"A2 "Part 1"EF EC EF | "D"AG Ac BA cB | "A"AF EF EC A,C | 
"E"EF Ac B2 FG | "A"AF EF EC EF | "D"AG Ac BA cd | "E"ec AE cA EC | "E"EG BG "A"AE FG | 
"A"A2 EF EC A,C | "D"EF Ac BA cB | "A"AF EF EC EF | "E"AG Ac BA cB | "A"AF EF EC A,C | 
"D"EF Ac BA cd | "E"ec AE cA EC | EG BG "A"A2 cd |: "A"ec "Part 2"Ae cA ec | "D"fd Af dA fd | 
"A"ec Ae cA ec | "E"dc BA GF E2 | "A"ec Ae cA ec | "D"fd Af dA f2 | "A"ac' ea ce Ac | 
|1 E"E"G BG "A"A2 cd :|2 E"E"G BG "A"A2 (3efg |: "A"a2 "Part 3"fa ec A2 | "D"[a2A2] [aA]c' ba c'b | 
"A"ae fa ec A2 | "E"[a2A2] [aA]c' ba ac' | "A"ae fa ec A2 | "D"a2 ac' ba ac' | 
"E"e'c' ae c'a ec |1 e"E"g bg "A"a2 fg :|2 e"E"g bg "A"a2 [AA][BA] |: "A"[cA][AA] "Part 4"z[cA] [A2A2] Bc | 
"D"de fg a2 [AA][BA] | "A"[cA][AA] z[cA] [A2A2] [AA][BA] | "E"[cA][BA] [AA][cA] [B2A2] [AA][BA] | 
"A"[cA][AA] z[cA] [A2A2] Bc | "D"de fg a2 fg | "E"ag ae fg af |1 e"E"d cB "A"A2 [AA][BA] :|2 e"E"d cB "A"A4 | 


